ix/card-tick_outline.svg

<svg viewBox="0 0 24 24" fill="none" xmlns="http://www.w3.org/2000/svg" height="1em" width="1em">
  <path d="M13.5 9.25H2C1.59 9.25 1.25 8.91 1.25 8.5C1.25 8.09 1.59 7.75 2 7.75H13.5C13.91 7.75 14.25 8.09 14.25 8.5C14.25 8.91 13.91 9.25 13.5 9.25Z" fill="#292D32"/>
  <path d="M8 17.25H6C5.59 17.25 5.25 16.91 5.25 16.5C5.25 16.09 5.59 15.75 6 15.75H8C8.41 15.75 8.75 16.09 8.75 16.5C8.75 16.91 8.41 17.25 8 17.25Z" fill="#292D32"/>
  <path d="M14.5 17.25H10.5C10.09 17.25 9.75 16.91 9.75 16.5C9.75 16.09 10.09 15.75 10.5 15.75H14.5C14.91 15.75 15.25 16.09 15.25 16.5C15.25 16.91 14.91 17.25 14.5 17.25Z" fill="#292D32"/>
  <path d="M17.56 21.25H6.44C2.46 21.25 1.25 20.05 1.25 16.11V7.89C1.25 3.95 2.46 2.75 6.44 2.75H13.5C13.91 2.75 14.25 3.09 14.25 3.5C14.25 3.91 13.91 4.25 13.5 4.25H6.44C3.3 4.25 2.75 4.79 2.75 7.89V16.1C2.75 19.2 3.3 19.74 6.44 19.74H17.55C20.69 19.74 21.24 19.2 21.24 16.1V11.02C21.24 10.61 21.58 10.27 21.99 10.27C22.4 10.27 22.74 10.61 22.74 11.02V16.1C22.75 20.05 21.54 21.25 17.56 21.25Z" fill="#292D32"/>
  <path d="M17.9995 8.24994C17.8095 8.24994 17.6195 8.17994 17.4695 8.02994L15.9695 6.52994C15.6795 6.23994 15.6795 5.75994 15.9695 5.46994C16.2595 5.17994 16.7395 5.17994 17.0295 5.46994L17.9995 6.43994L21.4695 2.96994C21.7595 2.67994 22.2395 2.67994 22.5295 2.96994C22.8195 3.25994 22.8195 3.73994 22.5295 4.02994L18.5295 8.02994C18.3795 8.17994 18.1895 8.24994 17.9995 8.24994Z" fill="#292D32"/>
</svg>

<svg viewBox="0 0 24 24" fill="none" xmlns="http://www.w3.org/2000/svg" height="1em" width="1em">
  <path d="M13.5 9.25H2c-.41 0-.75-.34-.75-.75s.34-.75.75-.75h11.5c.41 0 .75.34.75.75s-.34.75-.75.75Zm-5.5 8H6c-.41 0-.75-.34-.75-.75s.34-.75.75-.75h2c.41 0 .75.34.75.75s-.34.75-.75.75Zm6.5 0h-4c-.41 0-.75-.34-.75-.75s.34-.75.75-.75h4c.41 0 .75.34.75.75s-.34.75-.75.75Z" fill="#292D32"/>
  <path d="M17.56 21.25H6.44c-3.98 0-5.19-1.2-5.19-5.14V7.89c0-3.94 1.21-5.14 5.19-5.14h7.06c.41 0 .75.34.75.75s-.34.75-.75.75H6.44c-3.14 0-3.69.54-3.69 3.64v8.21c0 3.1.55 3.64 3.69 3.64h11.11c3.14 0 3.69-.54 3.69-3.64v-5.08c0-.41.34-.75.75-.75s.75.34.75.75v5.08c.01 3.95-1.2 5.15-5.18 5.15Z" fill="#292D32"/>
  <path d="M18 8.25c-.19 0-.38-.07-.53-.22l-1.5-1.5a.754.754 0 0 1 0-1.06c.29-.29.77-.29 1.06 0l.97.97 3.47-3.47c.29-.29.77-.29 1.06 0 .29.29.29.77 0 1.06l-4 4c-.15.15-.34.22-.53.22Z" fill="#292D32"/>
</svg>
